X:850
T:Jenny's Bawbee 
C:Joe Buchanan's Scottish Tome - Page 414.2
I:414 2
R:Strathspey
Z:Carl Allison
L:1/8
M:4/4
K:D
f | "D"a>ba>g "Bm"(f<d)(d>f) | "Em"g>Be>d "A7"(c>A)(A>f) |
"D"a>ba>g "Bm"(f<d)(f>a) | "Em"(B>d)(c>A) "D"(d2 d) :|
e | "D"f>dg>e (f>d)(d>f) | "Em"(g>B)(e>d) "A7"(c>A) A2 |
"D"f>dg>e (f>d)(f>a) | "Em"(B>d)(c>A) "D"(d2 d)>e |
"D"f>dg>e (f>d)(d>f) | "Em"(g>B)(e>d) "A7"(c>A) A2 |
"D"f>dg>e (f>d)(f>a) | "Em"(B>d)(c>A) "D"(d2 d) |]

